static/icons/ordamirror.svg

<svg height="50" viewBox="0 0 13.229166 13.229167" width="50" xmlns="http://www.w3.org/2000/svg"><path d="m19.142578 2.4042969c-.785881.0113386-1.137418 1.0495863-1.71875 2.3945312.019125.0264567.046746.051227.072266.0761719-1.609198.6746457-3.572955 2.0121137-4.335938 3.1015625h-.228515c-2.37711 0-4.291016 1.9138817-4.291016 4.2910155v1.941406c0 1.011364.3486218 1.936064.9296875 2.667969-1.7558752 3.640668-4.0634791 7.172676-7.6464844 10.677735.6534372 1.037177 4.5759004.423863 7.7578125 4.076171.6832164-.839433 2.2356514-7.804598 3.4062504-13.130859h11.8125c.288909 1.378211.601697 2.862969.919921 4.332031-.306074.283037-.567021.56519-.753906.832031h-.232422c-.186094 0-.363099.032357-.542968.054688l-.91211-3.693359h-8.839844l-2.210937 8.951171c3.790678 1.038912 5.81987 1.426438 8.136719 1.181641.030157.978248.372962 1.874343.939453 2.587891-1.791683 3.714935-4.148614 7.319917-7.804688 10.896484.666763 1.058306 4.671168.4314 7.917969 4.158203.697149-.856554 2.278185-7.965467 3.472656-13.40039h12.056641c1.144407 5.459338 2.671068 12.655645 3.363281 13.52539 3.281942-3.683792 7.278324-3.003348 7.955078-4.052734-3.674899-3.677669-6.010011-7.367754-7.77539-11.164063.575901-.741089.921875-1.670101.921875-2.685546v-1.980469c0-2.425588-1.953316-4.378907-4.378907-4.378907h-.105468c-.795883-1.095344-2.692484-2.420482-4.279297-3.121093.04727-.034016.108663-.058664.146484-.095703-.430367-1.262665-.89368-2.483289-1.724609-2.470704-.627463.008873-.9856.669226-1.394531 1.609376-.508162-.909682-.972083-1.823104-1.400391-2.744141.564392-.726312.902344-1.637663.902344-2.632813v-1.941406c0-2.3771338-1.913906-4.2910155-4.291016-4.2910155h-.103516c-.779977-1.0734992-2.638259-2.371967-4.193359-3.0585937.04633-.0302363.105509-.0574666.142578-.09375-.421766-1.2374552-.87513-2.432281-1.689453-2.4199219zm7.330078 33.5546871-2.255859 9.132813c6.264395 1.71685 7.809834 1.70332 13.53125 0l-2.253906-9.132813z" fill="#676cad" transform="scale(.26458333)"/></svg>

<?xml version="1.0" encoding="UTF-8" standalone="no"?>
<svg
   xmlns:dc="http://purl.org/dc/elements/1.1/"
   xmlns:cc="http://creativecommons.org/ns#"
   xmlns:rdf="http://www.w3.org/1999/02/22-rdf-syntax-ns#"
   xmlns:svg="http://www.w3.org/2000/svg"
   xmlns="http://www.w3.org/2000/svg"
   xmlns:sodipodi="http://sodipodi.sourceforge.net/DTD/sodipodi-0.dtd"
   xmlns:inkscape="http://www.inkscape.org/namespaces/inkscape"
   width="50"
   height="50"
   viewBox="0 0 13.229166 13.229167"
   version="1.1"
   id="svg1579"
   inkscape:version="1.0.1 (3bc2e813f5, 2020-09-07)"
   sodipodi:docname="ordamirror.svg">
  <defs
     id="defs1573">
    <inkscape:path-effect
       effect="mirror_symmetry"
       start_point="-15.691712,-45.362002"
       end_point="-15.691712,4.437998"
       center_point="-15.691712,-20.462002"
       id="path-effect7365"
       is_visible="true"
       mode="free"
       discard_orig_path="false"
       fuse_paths="true"
       oposite_fuse="false" />
    <inkscape:path-effect
       effect="mirror_symmetry"
       start_point="274.21267,350.55066"
       end_point="273.50284,477.30227"
       center_point="273.85776,413.92646"
       id="path-effect4557-0-4"
       is_visible="true"
       mode="free"
       discard_orig_path="false"
       fuse_paths="true"
       oposite_fuse="false" />
  </defs>
  <sodipodi:namedview
     id="base"
     pagecolor="#ffffff"
     bordercolor="#666666"
     borderopacity="1.0"
     inkscape:pageopacity="0.0"
     inkscape:pageshadow="2"
     inkscape:zoom="15.839192"
     inkscape:cx="-5.0489263"
     inkscape:cy="15.454647"
     inkscape:document-units="px"
     inkscape:current-layer="layer1"
     showgrid="false"
     units="px"
     showguides="true"
     inkscape:window-width="3840"
     inkscape:window-height="2050"
     inkscape:window-x="-12"
     inkscape:window-y="-12"
     inkscape:window-maximized="1"
     inkscape:document-rotation="0" />
  <metadata
     id="metadata1576">
    <rdf:RDF>
      <cc:Work
         rdf:about="">
        <dc:format>image/svg+xml</dc:format>
        <dc:type
           rdf:resource="http://purl.org/dc/dcmitype/StillImage" />
        <dc:title></dc:title>
      </cc:Work>
    </rdf:RDF>
  </metadata>
  <g
     inkscape:label="Layer 1"
     inkscape:groupmode="layer"
     id="layer1"
     transform="translate(0,-283.77082)">
    <path
       id="path4559-3"
       style="fill:#676cad;fill-opacity:1;stroke:none;stroke-width:1.25163;stroke-linecap:butt;stroke-linejoin:miter;stroke-miterlimit:4;stroke-dasharray:none;stroke-opacity:1"
       d="M 19.142578 2.4042969 C 18.356697 2.4156355 18.00516 3.4538832 17.423828 4.7988281 C 17.442953 4.8252848 17.470574 4.8500551 17.496094 4.875 C 15.886896 5.5496457 13.923139 6.8871137 13.160156 7.9765625 L 12.931641 7.9765625 C 10.554531 7.9765625 8.640625 9.8904442 8.640625 12.267578 L 8.640625 14.208984 C 8.640625 15.220348 8.9892468 16.145048 9.5703125 16.876953 C 7.8144373 20.517621 5.5068334 24.049629 1.9238281 27.554688 C 2.5772653 28.591865 6.4997285 27.978551 9.6816406 31.630859 C 10.364857 30.791426 11.917292 23.826261 13.087891 18.5 L 24.900391 18.5 C 25.1893 19.878211 25.502088 21.362969 25.820312 22.832031 C 25.514238 23.115068 25.253291 23.397221 25.066406 23.664062 L 24.833984 23.664062 C 24.64789 23.664062 24.470885 23.696419 24.291016 23.71875 L 23.378906 20.025391 L 14.539062 20.025391 L 12.328125 28.976562 C 16.118803 30.015474 18.147995 30.403 20.464844 30.158203 C 20.495001 31.136451 20.837806 32.032546 21.404297 32.746094 C 19.612614 36.461029 17.255683 40.066011 13.599609 43.642578 C 14.266372 44.700884 18.270777 44.073978 21.517578 47.800781 C 22.214727 46.944227 23.795763 39.835314 24.990234 34.400391 L 37.046875 34.400391 C 38.191282 39.859729 39.717943 47.056036 40.410156 47.925781 C 43.692098 44.241989 47.68848 44.922433 48.365234 43.873047 C 44.690335 40.195378 42.355223 36.505293 40.589844 32.708984 C 41.165745 31.967895 41.511719 31.038883 41.511719 30.023438 L 41.511719 28.042969 C 41.511719 25.617381 39.558403 23.664062 37.132812 23.664062 L 37.027344 23.664062 C 36.231461 22.568718 34.33486 21.24358 32.748047 20.542969 C 32.795317 20.508953 32.85671 20.484305 32.894531 20.447266 C 32.464164 19.184601 32.000851 17.963977 31.169922 17.976562 C 30.542459 17.985435 30.184322 18.645788 29.775391 19.585938 C 29.267229 18.676256 28.803308 17.762834 28.375 16.841797 C 28.939392 16.115485 29.277344 15.204134 29.277344 14.208984 L 29.277344 12.267578 C 29.277344 9.8904442 27.363438 7.9765625 24.986328 7.9765625 L 24.882812 7.9765625 C 24.102835 6.9030633 22.244553 5.6045955 20.689453 4.9179688 C 20.735783 4.8877325 20.794962 4.8605022 20.832031 4.8242188 C 20.410265 3.5867636 19.956901 2.3919378 19.142578 2.4042969 z M 26.472656 35.958984 L 24.216797 45.091797 C 30.481192 46.808647 32.026631 46.795117 37.748047 45.091797 L 35.494141 35.958984 L 26.472656 35.958984 z "
       transform="matrix(0.26458333,0,0,0.26458333,0,283.77082)" />
  </g>
</svg>
